X: 961
T: All In One
R: jig
M: 6/8
K: Gmajor
|:"Em"G2 A BFG|"Em"FED EGB|"D"FED EEE|"D"DGF GAB|
"Em"G2 A Bfg|"Em"eBA B2 d|"C"edB AGF|"D"GFD "G"G3:|
"Em"fge ged|"Em"edA B2 d|"C"edB AGF|"D"GFD EGB|
"Em"gab fed|"Em"edA B2 e|"C"edB AGF|"D"GFD "G"G3:|

